img/img-for-index/htmlacademy.svg

<svg width="199" height="68" viewBox="0 0 199 68" fill="none" xmlns="http://www.w3.org/2000/svg">
<path d="M82.1429 49.4881C82.4922 49.4881 82.8414 49.3834 83.1557 49.3135V51.7582C82.5271 52.0027 81.7588 52.1424 80.9904 52.1424C79.5934 52.1424 78.4759 51.5836 77.9171 50.3612C76.4153 51.5836 74.5294 52.3519 72.1196 52.3519C69.3256 52.3519 66.7412 50.8153 66.7412 47.6371C66.7412 43.6907 70.3734 42.5032 73.5864 42.5032C74.9135 42.5032 76.3804 42.6778 77.5678 42.9572V42.3985C77.5678 40.4776 76.1708 39.1505 73.5515 39.1505C71.2814 39.1505 69.3955 39.7093 68.0334 40.3379V37.1947C69.2558 36.7756 71.456 36.1819 73.9007 36.1819C78.2314 36.1819 80.9904 38.2424 80.9904 42.8874V48.3705C81.0253 49.2087 81.5143 49.4881 82.1429 49.4881ZM70.2686 47.3927C70.2686 48.8944 71.5957 49.6628 73.1324 49.6628C74.7739 49.6628 76.3455 49.069 77.5678 47.8467V45.2623C76.6249 45.0876 75.3326 44.8781 74.25 44.8781C72.3291 44.8781 70.2686 45.4718 70.2686 47.3927Z" fill="black"/>
<path d="M93.0393 36.1469C94.7506 36.1469 96.427 36.531 97.7542 37.3343V40.4775C96.6366 39.6742 95.065 39.1853 93.4934 39.1853C90.7693 39.1853 88.0451 40.6172 88.0451 44.2493C88.0451 47.7418 90.6994 49.3134 93.4584 49.3134C95.0999 49.3134 96.7064 48.8245 97.9288 48.126V51.3041C96.462 52.0026 94.7856 52.3518 92.8647 52.3518C88.7786 52.3518 84.5876 49.8722 84.5876 44.389C84.5527 38.6265 88.9532 36.1469 93.0393 36.1469Z" fill="black"/>
<path d="M115.426 49.4881C115.775 49.4881 116.125 49.3834 116.439 49.3135V51.7582C115.81 52.0027 115.042 52.1424 114.274 52.1424C112.877 52.1424 111.759 51.5836 111.2 50.3612C109.699 51.5836 107.813 52.3519 105.403 52.3519C102.609 52.3519 100.024 50.8153 100.024 47.6371C100.024 43.6907 103.657 42.5032 106.87 42.5032C108.197 42.5032 109.664 42.6778 110.851 42.9572V42.3985C110.851 40.4776 109.454 39.1505 106.835 39.1505C104.565 39.1505 102.679 39.7093 101.317 40.3379V37.1947C102.539 36.7756 104.739 36.1819 107.184 36.1819C111.515 36.1819 114.274 38.2424 114.274 42.8874V48.3705C114.309 49.2087 114.832 49.4881 115.426 49.4881ZM103.587 47.3927C103.587 48.8944 104.914 49.6628 106.451 49.6628C108.092 49.6628 109.664 49.069 110.886 47.8467V45.2623C109.943 45.0876 108.651 44.8781 107.568 44.8781C105.612 44.8781 103.587 45.4718 103.587 47.3927Z" fill="black"/>
<path d="M134.425 29.5112V51.8979H131.352V49.4531C130.165 50.9549 128.348 52.282 125.485 52.282C120.84 52.282 117.871 48.615 117.871 44.1795C117.871 39.779 120.84 36.077 125.485 36.077C128.174 36.077 129.955 37.2645 131.003 38.4868V29.5112H134.425ZM126.078 39.1504C123.319 39.1504 121.329 41.2109 121.329 44.2494C121.329 47.2529 123.354 49.3134 126.078 49.3134C128.488 49.3134 130.234 47.7768 130.968 46.1004V42.3635C130.234 40.6871 128.488 39.1504 126.078 39.1504Z" fill="black"/>
<path d="M145.496 36.1469C151.608 36.1469 153.703 41.0712 152.725 45.5066H141.2C141.584 48.2657 144.274 49.4182 147.068 49.4182C148.919 49.4182 150.63 48.9642 151.922 48.3355V51.2692C150.525 51.9327 148.569 52.3169 146.439 52.3169C141.724 52.3169 137.743 49.6277 137.743 44.2144C137.743 38.6614 141.969 36.1469 145.496 36.1469ZM145.671 38.9757C143.366 38.9757 141.305 40.3378 141.165 42.9222H149.652C149.861 41.5951 149.023 38.9757 145.671 38.9757Z" fill="black"/>
<path d="M156.218 51.8978V36.5659H159.256V38.4868C160.094 37.5438 161.876 36.1469 164.355 36.1469C166.66 36.1469 168.267 37.0898 169.14 38.5916C170.467 37.2644 172.283 36.1469 174.518 36.1469C178.569 36.1469 180.351 39.1504 180.351 42.3285V51.9327H176.928V42.4333C176.928 40.4426 175.741 39.2202 173.89 39.2202C172.213 39.2202 170.886 40.3378 170.083 41.2808C170.118 41.63 170.153 41.9792 170.153 42.3285V51.9327H166.73V42.4333C166.73 40.4426 165.543 39.2202 163.692 39.2202C161.841 39.2202 160.444 40.5473 159.64 41.5951V51.9327H156.218V51.8978Z" fill="black"/>
<path d="M195.438 36.5659H199L191.806 53.9933C190.13 57.9747 187.964 59.3367 185.624 59.3367C184.961 59.3367 184.297 59.2319 183.599 59.0922V56.1935C184.123 56.3681 184.646 56.4031 185.17 56.4031C186.847 56.4031 188.069 55.2156 188.977 52.8408L189.291 52.0724L181.992 36.6008H185.624L190.793 48.1609L195.438 36.5659Z" fill="black"/>
<path d="M71.281 2.6543V11.3854C72.3986 10.2329 74.1448 9.28996 76.2403 9.28996C80.1169 9.28996 82.5616 11.9093 82.5616 15.5415V25.0409H79.139V15.9955C79.139 13.5158 77.6023 12.3284 75.5767 12.3284C73.6209 12.3284 72.1541 13.6555 71.281 14.8779V25.0409H67.8584V2.6543H71.281Z" fill="black"/>
<path d="M91.9211 4.22595V9.67418H97.4741V12.6777H91.9211V19.6975C91.9211 21.7231 92.8641 22.3867 94.8199 22.3867C95.9375 22.3867 96.9503 22.1772 97.9281 21.793V24.7267C96.7756 25.1458 95.3088 25.3902 93.8071 25.3902C90.8385 25.3902 88.5335 23.9234 88.5335 20.3262V12.6428H85.7744V9.63926H88.5335V5.06414L91.9211 4.22595Z" fill="black"/>
<path d="M101.875 25.0409V9.70901H104.913V11.6299C105.752 10.6869 107.533 9.28992 110.012 9.28992C112.317 9.28992 113.924 10.2329 114.797 11.7346C116.124 10.4075 117.94 9.28992 120.175 9.28992C124.227 9.28992 126.008 12.2934 126.008 15.4716V25.0758H122.585V15.5414C122.585 13.5507 121.398 12.3284 119.547 12.3284C117.87 12.3284 116.543 13.4459 115.74 14.3889C115.775 14.7381 115.81 15.0874 115.81 15.4366V25.0409H112.387V15.5414C112.387 13.5507 111.2 12.3284 109.349 12.3284C107.498 12.3284 106.101 13.6555 105.298 14.7032V25.0409H101.875Z" fill="black"/>
<path d="M134.425 2.6543H131.002V25.0409H134.425V2.6543Z" fill="black"/>
<path d="M27.0665 0.0349245L26.7871 0L0 2.79396V51.8979L26.7871 67.8234L53.5742 51.8979V2.79396L27.0665 0.0349245ZM50.0818 49.9072L26.7871 63.7722L3.49245 49.9072V29.7906L26.6823 43.5858L26.7173 46.1004L10.8266 36.6358L10.7917 39.0806L26.7522 48.6848L26.7871 51.2343L10.8266 41.6999L10.7917 44.1446L26.7522 53.7489L42.8873 44.1097V41.665H42.8524V40.8268V39.814V33.7371L50.0469 29.4414V49.9072H50.0818ZM50.0469 26.822L43.6906 30.559L40.7569 32.3052L26.7173 23.9932L26.6823 26.4379L38.6615 33.5276L38.5567 33.5974L38.3122 33.7371L36.6009 34.7499L26.7173 28.8826L26.6823 31.3273L34.5054 35.9723L32.6544 37.1946L32.6195 37.2296L26.7173 33.7371L26.6823 36.1818L30.559 38.4519L26.6125 40.8268L3.5623 27.1014L26.6474 13.2015L50.0469 26.822ZM50.0818 24.4123L26.6823 10.6171L3.49245 24.3773V5.9721L26.7871 3.52738L50.0818 5.9721V24.4123Z" fill="black"/>
</svg>

<svg width="199" height="68" fill="none" xmlns="http://www.w3.org/2000/svg"><path d="M82.14 49.49c.35 0 .7-.1 1.02-.18v2.45c-.63.24-1.4.38-2.17.38-1.4 0-2.51-.56-3.07-1.78a8.88 8.88 0 01-5.8 2c-2.8 0-5.38-1.54-5.38-4.72 0-3.95 3.63-5.14 6.85-5.14 1.32 0 2.79.18 3.98.46v-.56c0-1.92-1.4-3.25-4.02-3.25-2.27 0-4.15.56-5.52 1.19v-3.15a18.77 18.77 0 015.87-1c4.33 0 7.09 2.05 7.09 6.7v5.48c.04.84.52 1.12 1.15 1.12zm-11.87-2.1c0 1.5 1.33 2.27 2.86 2.27 1.64 0 3.22-.6 4.44-1.81v-2.59c-.95-.17-2.24-.38-3.32-.38-1.92 0-3.98.6-3.98 2.51zM93.04 36.15c1.71 0 3.39.38 4.71 1.18v3.15a7.5 7.5 0 00-4.26-1.3c-2.72 0-5.44 1.44-5.44 5.07 0 3.5 2.65 5.06 5.4 5.06 1.65 0 3.26-.49 4.48-1.18v3.17c-1.47.7-3.14 1.05-5.07 1.05-4.08 0-8.27-2.48-8.27-7.96-.04-5.76 4.36-8.24 8.45-8.24zM115.43 49.49c.34 0 .7-.1 1-.18v2.45c-.62.24-1.39.38-2.16.38-1.4 0-2.51-.56-3.07-1.78a8.87 8.87 0 01-5.8 2c-2.8 0-5.38-1.54-5.38-4.72 0-3.95 3.64-5.14 6.85-5.14 1.33 0 2.8.18 3.98.46v-.56c0-1.92-1.4-3.25-4.02-3.25-2.27 0-4.15.56-5.51 1.19v-3.15a18.76 18.76 0 015.86-1c4.33 0 7.1 2.05 7.1 6.7v5.48c.03.84.55 1.12 1.15 1.12zm-11.84-2.1c0 1.5 1.32 2.27 2.86 2.27 1.64 0 3.21-.6 4.44-1.81v-2.59c-.95-.17-2.24-.38-3.32-.38-1.96 0-3.98.6-3.98 2.51zM134.43 29.51V51.9h-3.08v-2.45a7.13 7.13 0 01-5.86 2.83c-4.65 0-7.62-3.66-7.62-8.1 0-4.4 2.97-8.1 7.61-8.1a7.04 7.04 0 015.52 2.4v-8.97h3.43zm-8.35 9.64c-2.76 0-4.75 2.06-4.75 5.1 0 3 2.02 5.06 4.75 5.06a5.34 5.34 0 004.89-3.21v-3.74a5.34 5.34 0 00-4.9-3.21zM145.5 36.15c6.1 0 8.2 4.92 7.22 9.36H141.2c.38 2.76 3.07 3.9 5.87 3.9 1.85 0 3.56-.45 4.85-1.07v2.93c-1.4.66-3.35 1.05-5.48 1.05-4.72 0-8.7-2.7-8.7-8.1a7.68 7.68 0 017.76-8.07zm.17 2.83c-2.3 0-4.36 1.36-4.5 3.94h8.48c.21-1.32-.63-3.94-3.98-3.94zM156.22 51.9V36.57h3.04v1.92a6.96 6.96 0 015.1-2.34c2.3 0 3.9.94 4.78 2.44a7.63 7.63 0 015.38-2.44c4.05 0 5.83 3 5.83 6.18v9.6h-3.42v-9.5c0-1.99-1.19-3.21-3.04-3.21-1.68 0-3 1.12-3.8 2.06.03.35.06.7.06 1.05v9.6h-3.42v-9.5c0-1.99-1.19-3.21-3.04-3.21s-3.25 1.33-4.05 2.38v10.33h-3.42v-.03zM195.44 36.57H199l-7.2 17.42c-1.67 3.98-3.84 5.35-6.18 5.35-.66 0-1.32-.1-2.02-.25v-2.9c.52.18 1.05.21 1.57.21 1.68 0 2.9-1.18 3.8-3.56l.32-.77L182 36.6h3.63l5.17 11.56 4.65-11.6zM71.28 2.65v8.74a6.95 6.95 0 014.96-2.1c3.88 0 6.32 2.62 6.32 6.25v9.5h-3.42V16c0-2.48-1.54-3.67-3.56-3.67-1.96 0-3.43 1.33-4.3 2.55v10.16h-3.42V2.65h3.42zM91.92 4.23v5.44h5.55v3h-5.55v7.03c0 2.02.94 2.69 2.9 2.69 1.12 0 2.13-.21 3.1-.6v2.94c-1.14.42-2.61.66-4.11.66-2.97 0-5.28-1.47-5.28-5.06v-7.69h-2.76v-3h2.76V5.06l3.4-.83zM101.88 25.04V9.71h3.03v1.92a6.96 6.96 0 015.1-2.34c2.3 0 3.91.94 4.79 2.44a7.63 7.63 0 015.38-2.44c4.05 0 5.83 3 5.83 6.18v9.6h-3.43v-9.53c0-1.99-1.18-3.21-3.03-3.21-1.68 0-3 1.12-3.81 2.06.04.35.07.7.07 1.05v9.6h-3.42v-9.5c0-1.99-1.19-3.21-3.04-3.21s-3.25 1.33-4.05 2.37v10.34h-3.42zM134.43 2.65H131v22.4h3.43V2.64zM27.07.03L26.79 0 0 2.8v49.1l26.79 15.92L53.57 51.9V2.8L27.07.02zm23.01 49.88l-23.3 13.86L3.5 49.91V29.79l23.2 13.8.03 2.51-15.9-9.46-.03 2.44 15.96 9.6.04 2.55-15.96-9.53-.04 2.44 15.96 9.6 16.14-9.63v-2.45h-.04v-7.92l7.2-4.3v20.47h.03zm-.03-23.09l-6.36 3.74-2.93 1.75-14.04-8.32-.04 2.45 11.98 7.09-.1.07-.25.14-1.7 1.01-9.9-5.87-.03 2.45 7.83 4.64-1.86 1.22-.03.04-5.9-3.5-.04 2.45 3.88 2.27-3.95 2.38L3.56 27.1l23.09-13.9 23.4 13.62zm.03-2.4l-23.4-13.8L3.5 24.38V5.98l23.3-2.45 23.3 2.44v18.44z" fill="#000"/></svg>
